svgs/regular/person-from-portal.svg

<svg xmlns="http://www.w3.org/2000/svg" viewBox="0 0 512 512"><!-- Font Awesome Pro 6.0.0-alpha2 by @fontawesome - https://fontawesome.com License - https://fontawesome.com/license (Commercial License) --><path d="M368.125 96C394.625 96 416.125 74.5 416.125 48S394.625 0 368.125 0S320.125 21.5 320.125 48S341.625 96 368.125 96ZM488 240L439.625 239.875C436.125 239.875 433 237.5 432 234.125L418.125 188.75C408.875 158.5 384.125 135.625 353.25 128.625L275 110.875C249.375 105 222.5 111 201.75 127.125L185 140C174.375 63.125 149.375 0 96 0C52.25 0 0 44.375 0 256C0 372.75 16.625 512 96 512C120.625 512 147.875 497.875 167.125 448H114.5C108.75 458.25 102.5 464 96 464C69.5 464 48 370.875 48 256S69.5 48 96 48S144 141.125 144 256C144 297.5 141 335.625 136.25 368H120C106.75 368 96 378.75 96 392S106.75 416 120 416H195C217.375 416 237.625 402.625 246.5 382L260 350.5L250.375 344.625C239 337.625 229.375 328.125 222.125 316.875L202.25 363.125C201 366.125 198.125 368 195 368H185.5C189.625 337.125 192 300.5 192 256C192 236.5 191.5 216.5 190.375 196.625L231.125 165C240.625 157.75 252.875 155.125 264.5 157.625L279.375 161L244 248.375C233.625 273.875 243.375 303.125 267 317.25L350.75 367.875C353.125 369.5 354.5 372 354.625 374.75C354.625 375.5 354.5 376.25 354.375 377L321 481.375C319.25 487.5 320 494.125 323.125 499.625C326.25 505.25 331.375 509.375 337.5 511.125C339.75 511.625 341.875 512 344.125 512C354.875 512 364.25 504.875 367.25 494.625L400.5 390.125C407.5 365.75 397.25 339.875 375.625 326.75L323.75 295.5L365.75 190.75C368.5 194.25 370.75 198.375 372.125 202.75L386.125 248.125C393.125 271.75 414.875 287.875 439.5 287.875L487.875 288H488C501.25 288 512 277.25 512 264C512 250.75 501.25 240 488 240Z"/></svg>

<svg xmlns="http://www.w3.org/2000/svg" viewBox="0 0 512 512"><!--! Font Awesome Pro 6.0.0-alpha3 by @fontawesome - https://fontawesome.com License - https://fontawesome.com/license (Commercial License) --><path d="M368 96c26.5 0 48-21.5 48-47.1S394.5 0 368 0s-48.01 21.5-48.01 48S341.5 96 368 96zM488 240l-48.38-.125c-3.5 0-6.625-2.375-7.625-5.75L418.1 188.8c-9.25-30.25-34-53.13-64.88-60.13L275 110.9C249.4 105 222.5 111 201.8 127.1L185 140C174.4 63.12 149.4 0 96 0C52.25 0 0 44.37 0 255.1C0 372.7 16.62 512 96 512c24.62 0 51.88-14.12 71.12-64H114.5C108.8 458.2 102.5 464 96 464c-26.5 0-48-93.13-48-208S69.5 48 96 48S144 141.1 144 256c0 41.5-3 79.63-7.75 112H120C106.8 368 96 378.8 96 392S106.8 416 120 416h75c22.38 0 42.63-13.38 51.5-33.1L260 350.5l-9.625-5.875c-11.38-7-21-16.5-28.25-27.75l-19.88 46.25C201 366.1 198.1 368 195 368H185.5C189.6 337.1 192 300.5 192 256c0-19.5-.5-39.5-1.625-59.38L231.1 165c9.5-7.25 21.75-9.875 33.38-7.375L279.4 161L244 248.4c-10.38 25.5-.625 54.75 23 68.87l83.75 50.63c2.375 1.625 3.75 4.125 3.875 6.875c0 .75-.125 1.5-.25 2.25L321 481.4C319.2 487.5 320 494.1 323.1 499.6c3.125 5.625 8.25 9.75 14.38 11.5C339.8 511.6 341.9 512 344.1 512c10.75 0 20.12-7.125 23.12-17.38l33.25-104.5c7-24.37-3.25-50.25-24.88-63.37L323.8 295.5l42-104.7c2.75 3.5 5 7.625 6.375 12l14 45.37c7 23.63 28.75 39.75 53.38 39.75L487.9 288C501.1 288 512 277.2 512 264C512 250.8 501.3 240 488 240z"/></svg>
